X: 1
T: The Little Steam Engine
C: Freddie Philips
O: Trumpton
Z: Robin Beech robin.beech@mcgill.ca
R: reel
M: 2/4
L: 1/16
Z: Contributed 20040510161000 by Robin Beech robin.beech@mcgill.ca
K: D
d4 d4 |c2B2 A2G2 |F2G2 A2B2 |A4 A2A2 |B4 c2d2 |A4 F4 |A2G2 F2E2 |D8 |E2A2 A2A2 |G2A2 A2A2 |F2G2 A2B2 |A4 d4 |E2G2 F2E2 |F2G2 A2F2 |^G2A2 B2c2 |A4 A4 |d4 d4 |c2B2 A2G2 |F2G2 A2B2 |A4 A2A2 |B4 c2d2 |A4 F4 |
A2G2 F2E2 |D8 :|
